modules/detection_bypass/_luts/neutral/iphone_warm.cube
TITLE "iPhone Warm"
LUT_3D_SIZE 4
DOMAIN_MIN 0.0 0.0 0.0
DOMAIN_MAX 1.0 1.0 1.0
0.0 0.0 0.0
0.35 0.0 0.0
0.68 0.0 0.0
1.0 0.0 0.0
0.0 0.333 0.0
0.35 0.333 0.0
0.68 0.333 0.0
1.0 0.333 0.0
0.0 0.667 0.0
0.35 0.667 0.0
0.68 0.667 0.0
1.0 0.667 0.0
0.0 1.0 0.0
0.35 1.0 0.0
0.68 1.0 0.0
1.0 1.0 0.0
0.0 0.0 0.31
0.35 0.0 0.31
0.68 0.0 0.31
1.0 0.0 0.31
0.0 0.333 0.31
0.35 0.333 0.31
0.68 0.333 0.31
1.0 0.333 0.31
0.0 0.667 0.31
0.35 0.667 0.31
0.68 0.667 0.31
1.0 0.667 0.31
0.0 1.0 0.31
0.35 1.0 0.31
0.68 1.0 0.31
1.0 1.0 0.31
0.0 0.0 0.64
0.35 0.0 0.64
0.68 0.0 0.64
1.0 0.0 0.64
0.0 0.333 0.64
0.35 0.333 0.64
0.68 0.333 0.64
1.0 0.333 0.64
0.0 0.667 0.64
0.35 0.667 0.64
0.68 0.667 0.64
1.0 0.667 0.64
0.0 1.0 0.64
0.35 1.0 0.64
0.68 1.0 0.64
1.0 1.0 0.64
0.0 0.0 0.95
0.35 0.0 0.95
0.68 0.0 0.95
1.0 0.0 0.95
0.0 0.333 0.95
0.35 0.333 0.95
0.68 0.333 0.95
1.0 0.333 0.95
0.0 0.667 0.95
0.35 0.667 0.95
0.68 0.667 0.95
1.0 0.667 0.95
0.0 1.0 0.95
0.35 1.0 0.95
0.68 1.0 0.95
1.0 1.0 0.95
